assets/img/braze_icons/switch-horizontal-02.svg

<svg fill="none" height="24" viewBox="0 0 24 24" width="24" xmlns="http://www.w3.org/2000/svg"><g fill="#801ed7"><path d="m8.70711 3.70711c.39052-.39053.39052-1.02369 0-1.41422-.39053-.39052-1.02369-.39052-1.41422 0l-4 4c-.39052.39053-.39052 1.02369 0 1.41422l4 3.99999c.39053.3905 1.02369.3905 1.41422 0 .39052-.3905.39052-1.0237 0-1.4142l-2.2929-2.2929h13.58579c.5523 0 1-.44772 1-1 0-.55229-.4477-1-1-1h-13.58579z"/><path d="m16.7071 12.2929c-.3905-.3905-1.0237-.3905-1.4142 0s-.3905 1.0237 0 1.4142l2.2929 2.2929h-13.5858c-.55228 0-1 .4477-1 1s.44772 1 1 1h13.5858l-2.2929 2.2929c-.3905.3905-.3905 1.0237 0 1.4142s1.0237.3905 1.4142 0l4-4c.3905-.3905.3905-1.0237 0-1.4142z"/></g></svg>

<svg width="24" height="24" viewBox="0 0 24 24" fill="none" xmlns="http://www.w3.org/2000/svg">
<path d="M8.70711 3.70711C9.09763 3.31658 9.09763 2.68342 8.70711 2.29289C8.31658 1.90237 7.68342 1.90237 7.29289 2.29289L3.29289 6.29289C2.90237 6.68342 2.90237 7.31658 3.29289 7.70711L7.29289 11.7071C7.68342 12.0976 8.31658 12.0976 8.70711 11.7071C9.09763 11.3166 9.09763 10.6834 8.70711 10.2929L6.41421 8L20 8C20.5523 8 21 7.55228 21 7C21 6.44771 20.5523 6 20 6L6.41421 6L8.70711 3.70711Z" fill="#801ED7"/>
<path d="M16.7071 12.2929C16.3166 11.9024 15.6834 11.9024 15.2929 12.2929C14.9024 12.6834 14.9024 13.3166 15.2929 13.7071L17.5858 16H4C3.44772 16 3 16.4477 3 17C3 17.5523 3.44772 18 4 18H17.5858L15.2929 20.2929C14.9024 20.6834 14.9024 21.3166 15.2929 21.7071C15.6834 22.0976 16.3166 22.0976 16.7071 21.7071L20.7071 17.7071C21.0976 17.3166 21.0976 16.6834 20.7071 16.2929L16.7071 12.2929Z" fill="#801ED7"/>
</svg>
